documentation/public/assets/images/text.svg

<svg width="32" height="13" viewBox="0 0 32 13" fill="none" xmlns="http://www.w3.org/2000/svg">
<path d="M0.772727 1.61364V0.363636H9.5V1.61364H5.84091V12H4.43182V1.61364H0.772727ZM13.8864 12.1818C13.0455 12.1818 12.3201 11.9962 11.7102 11.625C11.1042 11.25 10.6364 10.7273 10.3068 10.0568C9.98106 9.38258 9.81818 8.59848 9.81818 7.70455C9.81818 6.81061 9.98106 6.02273 10.3068 5.34091C10.6364 4.6553 11.0947 4.12121 11.6818 3.73864C12.2727 3.35227 12.9621 3.15909 13.75 3.15909C14.2045 3.15909 14.6534 3.23485 15.0966 3.38636C15.5398 3.53788 15.9432 3.78409 16.3068 4.125C16.6705 4.46212 16.9602 4.90909 17.1761 5.46591C17.392 6.02273 17.5 6.70833 17.5 7.52273V8.09091H10.7727V6.93182H16.1364C16.1364 6.43939 16.0379 6 15.8409 5.61364C15.6477 5.22727 15.3712 4.92235 15.0114 4.69886C14.6553 4.47538 14.2348 4.36364 13.75 4.36364C13.2159 4.36364 12.7538 4.49621 12.3636 4.76136C11.9773 5.02273 11.6799 5.36364 11.4716 5.78409C11.2633 6.20455 11.1591 6.6553 11.1591 7.13636V7.90909C11.1591 8.56818 11.2727 9.12689 11.5 9.58523C11.7311 10.0398 12.0511 10.3864 12.4602 10.625C12.8693 10.8598 13.3447 10.9773 13.8864 10.9773C14.2386 10.9773 14.5568 10.928 14.8409 10.8295C15.1288 10.7273 15.3769 10.5758 15.5852 10.375C15.7936 10.1705 15.9545 9.91667 16.0682 9.61364L17.3636 9.97727C17.2273 10.4167 16.9981 10.803 16.6761 11.1364C16.3542 11.4659 15.9564 11.7235 15.483 11.9091C15.0095 12.0909 14.4773 12.1818 13.8864 12.1818ZM20.3054 3.27273L22.3963 6.84091L24.4872 3.27273H26.0327L23.2145 7.63636L26.0327 12H24.4872L22.3963 8.61364L20.3054 12H18.7599L21.5327 7.63636L18.7599 3.27273H20.3054ZM31.7415 3.27273V4.40909H27.2188V3.27273H31.7415ZM28.5369 1.18182H29.8778V9.5C29.8778 9.87879 29.9328 10.1629 30.0426 10.3523C30.1563 10.5379 30.3002 10.6629 30.4744 10.7273C30.6525 10.7879 30.84 10.8182 31.0369 10.8182C31.1847 10.8182 31.3059 10.8106 31.4006 10.7955C31.4953 10.7765 31.571 10.7614 31.6278 10.75L31.9006 11.9545C31.8097 11.9886 31.6828 12.0227 31.5199 12.0568C31.357 12.0947 31.1506 12.1136 30.9006 12.1136C30.5218 12.1136 30.1506 12.0322 29.7869 11.8693C29.4271 11.7064 29.1278 11.4583 28.8892 11.125C28.6544 10.7917 28.5369 10.3712 28.5369 9.86364V1.18182Z" fill="black"/>
</svg>

<svg width="32" height="13" fill="none" xmlns="http://www.w3.org/2000/svg"><path d="M.77 1.61V.36H9.5v1.25H5.84V12h-1.4V1.61H.76ZM13.9 12.18a3.74 3.74 0 0 1-3.58-2.13 5.35 5.35 0 0 1-.5-2.35c0-.89.17-1.68.5-2.36a3.7 3.7 0 0 1 3.44-2.18 4 4 0 0 1 1.35.23 3.34 3.34 0 0 1 2.08 2.08c.21.55.32 1.24.32 2.05v.57h-6.73V6.93h5.37c0-.5-.1-.93-.3-1.32a2.23 2.23 0 0 0-2.09-1.25 2.47 2.47 0 0 0-2.28 1.42 3 3 0 0 0-.31 1.36v.77c0 .66.11 1.22.34 1.68a2.48 2.48 0 0 0 2.39 1.39c.35 0 .67-.05.95-.15a1.93 1.93 0 0 0 1.23-1.22l1.3.37a2.9 2.9 0 0 1-.7 1.16c-.32.33-.71.58-1.19.77-.47.18-1 .27-1.6.27Zm6.42-8.9 2.09 3.56 2.09-3.57h1.54l-2.82 4.37L26.03 12H24.5l-2.1-3.39L20.32 12h-1.55l2.77-4.36-2.77-4.37h1.55Zm11.43 0V4.4h-4.52V3.27h4.52Zm-3.2-2.1h1.34V9.5c0 .38.05.66.16.85.12.19.26.31.43.38.18.06.37.09.57.09.14 0 .27 0 .36-.02l.23-.05.27 1.2a2.73 2.73 0 0 1-1 .16 2.7 2.7 0 0 1-1.11-.24 2.21 2.21 0 0 1-.9-.74 2.14 2.14 0 0 1-.35-1.27V1.18Z" fill="#000"/></svg>
